_includes/icons/color-barcode.svg

<svg fill="#666" height="50" viewBox="0 0 48 48" width="50" xmlns="http://www.w3.org/2000/svg"><g fill="#607d8b"><path d="m11 7h4v36h-4z"/><path d="m5 7h4v36h-4z"/><path d="m17 7h2v36h-2z"/><path d="m31 7h4v36h-4z"/><path d="m37 7h4v36h-4z"/><path d="m21 7h8v36h-8z"/></g></svg>

<svg xmlns="http://www.w3.org/2000/svg" viewBox="0 0 48 48" width="50" height="50" fill="#666"><g fill="#607d8b"><path d="M 11 7 L 15 7 L 15 43 L 11 43 Z"/><path d="M 5 7 L 9 7 L 9 43 L 5 43 Z"/><path d="M 17 7 L 19 7 L 19 43 L 17 43 Z"/><path d="M 31 7 L 35 7 L 35 43 L 31 43 Z"/><path d="M 37 7 L 41 7 L 41 43 L 37 43 Z"/><path d="M 21 7 L 29 7 L 29 43 L 21 43 Z"/></g></svg>
